X: 17
T: Glen Of Aherlow, The
C: Sean Ryan
Z: RobSheldrick
S: https://thesession.org/tunes/496#setting51820
R: reel
M: 4/4
L: 1/8
K: Gdor
|d2cA dAcA|GBA GGFDd|d2cA dAcA|FAcA AGGA|
d2cA dAcA|GcA FGFDC|DGGF GBAg|fdcA G4|
|gd (3ddd gabg|af ~f2 cfaf|gd~d2 gbag|fdcA BGBd|
gdd g2 abg|af ~f2 cfaf|~d3e f2ag|fdcA BGBd|
|dDcD dDcD|BDA DGFDc|dDcD dDcD|FA{d}cA {B}AGGA|
dDcD dDcD|BDA DGFDC|B,DGB DFag|fdcA G4|
|{a}(g4g3)b|a4{b}agab|gaag abga|fgdf cdBd|
g3 g2 abg|af ~f2 fgaf|gaag abga|fgdf cdBc||

